images/footer-fb.svg

<svg width="30" height="30" viewBox="0 0 30 30" fill="none" xmlns="http://www.w3.org/2000/svg">
<path d="M26.25 0H3.75C1.68187 0 0 1.68187 0 3.75V26.25C0 28.3181 1.68187 30 3.75 30H15V19.6875H11.25V15H15V11.25C15 8.14313 17.5181 5.625 20.625 5.625H24.375V10.3125H22.5C21.465 10.3125 20.625 10.215 20.625 11.25V15H25.3125L23.4375 19.6875H20.625V30H26.25C28.3181 30 30 28.3181 30 26.25V3.75C30 1.68187 28.3181 0 26.25 0Z" fill="white"/>
</svg>

<svg width="30" height="30" fill="none" xmlns="http://www.w3.org/2000/svg"><path d="M26.25 0H3.75A3.754 3.754 0 000 3.75v22.5A3.754 3.754 0 003.75 30H15V19.687h-3.75V15H15v-3.75a5.625 5.625 0 015.625-5.625h3.75v4.688H22.5c-1.035 0-1.875-.098-1.875.937V15h4.688l-1.875 4.688h-2.813V30h5.625A3.754 3.754 0 0030 26.25V3.75A3.754 3.754 0 0026.25 0z" fill="#fff"/></svg>
